X:1
T:Title
%%score { ( 1 4 ) | ( 2 3 ) }
L:1/8
M:4/4
K:Bb
V:1 treble nm="Grand Piano"
V:4 treble 
V:2 bass 
V:3 bass 
V:1
 z4 z2[Q:1/4=100] [DF]2 | [DF]2 [B,D]2 [CE]2 [_DG]2 | [B,DG]4 [B,DF]2 [A,EF]2 | z4 B2 z2 | %4
[M:3/4] c6 |[M:1/4] c2 |[M:4/4] d3 d c2 A2 | B4 G2 [EG]2 | F2 B2 A3 [DB] |[M:3/4] [DB]6 | %10
[M:1/4] [DB]2 |[M:4/4] [DB]3 [DGB] [C^FA]2 [CD]2 | [C^FA]4 [B,G]2 [B,=FG]2 | %13
 [C=EG]2 E-[EB] [Ed]2 [Ec]2 |[M:3/4] c6 |[M:1/4] c2 |[M:4/4] z2 d2 z4 | [Gc]4 [EG]4 | z4 c4 | %19
[M:3/4] [DB]6 |] %20
V:2
 z4 z2 [B,,B,]2 | [B,,B,]2 [B,,F,]2 [B,,F,]2 =E,G, | B,,4 B,,2 C,2 | D,2 D,2 G,2 z [C,C] | %4
[M:3/4][K:treble] [F,A,F]6 |[M:1/4] [F,A,F]2 |[M:4/4] [B,F]3 [B,F][K:bass] [F,A,E]2 [^F,CE]2 | %7
 [G,B,D]4 [E,B,E]2 [C,B,]2 | [F,B,D]2 [F,DF]2 [F,CE]3 [B,,B,] |[M:3/4] [B,,B,]6 |[M:1/4] [B,,F,]2 | %11
[M:4/4] [G,,G,]3 B,, D,2 D,2 | E,4 E,2 E,2 | C,2 z G, [C,B,]2 [C,B,]2 |[M:3/4][K:treble] [F,A,F]6 | %15
[M:1/4] [F,A,F]2 |[M:4/4] [B,F]2 [B,F]2 [G,B,E]2[K:bass] [F,B,F]2 | [E,B,]4 [C,B,]4 | z4 B,2 z2 | %19
[M:3/4] [B,,B,]6 |] %20
V:3
 x8 | z4 z2 B,,2 | x8 | z4 C,4 |[M:3/4][K:treble] x6 |[M:1/4] x2 |[M:4/4] x4[K:bass] x4 | x8 | x8 | %9
[M:3/4] x6 |[M:1/4] x2 |[M:4/4] x8 | x8 | z2 C,2 z4 |[M:3/4][K:treble] x6 |[M:1/4] x2 | %16
[M:4/4] x6[K:bass] x2 | x8 | [F,B,D]2 [F,B,D]2 [F,E]3 [B,,B,] |[M:3/4] x6 |] %20
V:4
 x8 | x8 | x8 | [B,F]2 [B,FB]2 E2- [CEA][EB] |[M:3/4] x6 |[M:1/4] x2 |[M:4/4] x8 | x8 | x8 | %9
[M:3/4] x6 |[M:1/4] x2 |[M:4/4] x8 | x8 | z2 .[A,A]2 z4 |[M:3/4] x6 |[M:1/4] x2 | %16
[M:4/4] d2 z _A, e2 d2 | x8 | B2 F2 z2 A,[DB] |[M:3/4] x6 |] %20

